X: 420
T:Missa Mi mi / Sanctus
N: Derived from Jos9901d-Missa_Mi_mi-Sanctus.krn
C: Josquin des Prez
%%abc-version 2.0
%%abcx-abcm2ps-target-version 5.9.1 (29 Sep 2008)
%%abc-creator hum2abc beta
%%abcx-conversion-date 2019/02/12 16:15:56
%%abc-edited-by Jesse Rodin
%%abc-edited-by Jesse Rodin (8/14/2012)
%%abcx-initial-encoding-date 2012/08/14/
%%humdrum-veritas 221063827
%%humdrum-veritas-data 1433439096
%%linebreak <none>
%%barnumbers 0
L: 1/4
M: 3/1
Q: 1/2=120
%%staves [1 2 3 4]
V: 1 clef=treble
V: 2 clef=treble-8
V: 3 clef=bass
V: 4 clef=bass
K: C
[V:1] z4B6E2 | 
[V:2] z12 | 
[V:3] B,6E,2E,4 | 
[V:4] z12 | 
[V:1] E4z2G4A2 | 
[V:2] z4z4e4- | 
[V:3] z2E,2G,3A,B,2C2- | 
[V:4] z4E,6A,,2 | 
[V:1] c8B4- | 
[V:2] e2A2A4z2e2- | 
[V:3] C2C4B,A,G,3A, | 
[V:4] A,,4A,4E,4 | 
[V:1] B4A2c4BA | 
[V:2] e2def2e4d2 | 
[V:3] B,CD4C2A,4 | 
[V:4] G,4F,8 | 
[V:1] G6A3GF2 | 
[V:2] e4z4A4 | 
[V:3] B,2C3B,A,G,F,4 | 
[V:4] E,6F,3E,D,2 | 
[V:1] E4F2G3FE2 | 
[V:2] c3BA2G4A2 | 
[V:3] G,4F,2E,2C,4 | 
[V:4] C,4z2E,3D,C,2 | 
[V:1] D2C2A,4B,4 | 
[V:2] B2c3BA4^G2 | 
[V:3] z2C,3D,E,2F,2G,2 | 
[V:4] B,,2A,,3B,,C,2D,2E,2 | 
[V:1] A,8z4 | 
[V:2] A4z4A4 | 
[V:3] E,4F,4E,4 | 
[V:4] A,,12 | 
[V:1] A8G4 | 
[V:2] c12 | 
[V:3] z2A,3G,F,2E,4 | 
[V:4] z12 | 
[V:1] F2A4G2F2ED | 
[V:2] d12 | 
[V:3] D,3E,F,2G,2D,4 | 
[V:4] z12 | 
[V:1] C6c4BA | 
[V:2] A8c4 | 
[V:3] z2F,4E,D,C,4 | 
[V:4] z4z4A,,4 | 
[V:1] G4z2G2A2c2 | 
[V:2] c3BAGG4^F2 | 
[V:3] E,6D,4C,2 | 
[V:4] C,6B,,2A,,4 | 
[V:1] B2G4FED4 | 
[V:2] G4z4G4 | 
[V:3] D,2G,4A,2B,4 | 
[V:4] G,,12 | 
[V:1] C4z4F4 | 
[V:2] A2G4c4B2 | 
[V:3] C3B,A,G,G,4F,2 | 
[V:4] C,8D,4 | 
[V:1] E3FG2A4B2 | 
[V:2] c8d3c/B/ | 
[V:3] G,4z4z4 | 
[V:4] C,3D,E,2F,4G,2 | 
[V:1] c2B3AA4^G2 | 
[V:2] A2G2A4B4 | 
[V:3] z4z4z2E,2- | 
[V:4] A,2E,2F,4E,4 | 
[V:1] A3GFEE4D2 | 
[V:2] A12- | 
[V:3] E,2F,2D,2E,2F,4 | 
[V:4] A,,2D,4C,2D,4 | 
[V:1] E12- | 
[V:2] A4B4c4 | 
[V:3] E,12- | 
[V:4] A,,4z4A,,4 | 
[V:1] E12 ||  
[V:2] B12 ||  
[V:3] E,12 ||  
[V:4] E,12 ||  
[V:1]  [K:C] [K:clef=treble][M:3/1]z12 | 
[V:2]  [K:C] [K:clef=treble-8][M:3/1]B2c2B2e4d2 | 
[V:3]  [K:C] [K:clef=bass][M:3/1]z12 | 
[V:4]  [K:C] [K:clef=bass][M:3/1]z4z4E,2F,2 | 
[V:1] z4z4z4 | 
[V:2] e2c3AB2A2d2- | 
[V:3] z12 | 
[V:4] E,2A,4G,2A,2F,2- | 
[V:1] z12 | 
[V:2] d2c2d2B3GA2 | 
[V:3] z12 | 
[V:4] F,D,E,2D,2G,4F,2 | 
[V:1] z12 | 
[V:2] G2c4B2c2A2- | 
[V:3] z12 | 
[V:4] G,2E,3C,D,2C,2F,2- | 
[V:1] z12 | 
[V:2] AFG2F2c2dcf2- | 
[V:3] z12 | 
[V:4] F,2E,2F,8 | 
[V:1] z12 | 
[V:2] f2e2f3e/d/c2d2 | 
[V:3] z12 | 
[V:4] G,4F,8 | 
[V:1] z12 | 
[V:2] c3B/A/B2A2G3F/E/ | 
[V:3] z12 | 
[V:4] A,4G,2F,2E,4 | 
[V:1] z12 | 
[V:2] F2E4A4^G2 | 
[V:3] z12 | 
[V:4] D,2C,2A,,4B,,4 | 
[V:1] z12 | 
[V:2] A6B2A2d2- | 
[V:3] z12 | 
[V:4] A,,3B,,C,A,,D,4F,2 | 
[V:1] z12 | 
[V:2] d2^c2d6e2 | 
[V:3] z12 | 
[V:4] E,4D,3E,F,D,G,2- | 
[V:1] z12 | 
[V:2] d2g4f2e2f2- | 
[V:3] z12 | 
[V:4] G,2B,2A,4G,2A,2- | 
[V:1] z12 | 
[V:2] fed2c2d4^c2 | 
[V:3] z12 | 
[V:4] A,G,F,2E,2D,2E,4 | 
[V:1] z4z4F4 | 
[V:2] d12 | 
[V:3] z4z4A,4 | 
[V:4] D,12 | 
[V:1] E2F2G2A3GF2 | 
[V:2] z12 | 
[V:3] G,2A,2B,2C3B,A,2 | 
[V:4] z12 | 
[V:1] E2D2G2F2E4 | 
[V:2] z4z4A4 | 
[V:3] G,3F,E,D,D4C2 | 
[V:4] z12 | 
[V:1] D12- | 
[V:2] B2A4G4F2 | 
[V:3] D2D,2F,2G,2D,4 | 
[V:4] z4z4A,4 | 
[V:1] D4z4z4 | 
[V:2] G2D2F2G2D4 | 
[V:3] z2D3CB,2A,4 | 
[V:4] B,2A,4G,4F,2 | 
[V:1] D8z4 | 
[V:2] z2d3cB2A4 | 
[V:3] G,2B,2A,G,G,4^F,2 | 
[V:4] G,2D,2F,2G,2D,4 | 
[V:1] z12 | 
[V:2] G2c2BAA4^G2 | 
[V:3] G,6A,2B,4 | 
[V:4] z2E,4C,2B,,4 | 
[V:1] z4z4z2A2- | 
[V:2] A8z4 | 
[V:3] C12 | 
[V:4] A,,2A,3G,F,2E,2F,2- | 
[V:1] AGF2E2F3ED2 | 
[V:2] z4z2A3GF2 | 
[V:3] A,12- | 
[V:4] F,E,D,2C,2D,2C,2D,2 | 
[V:1] C2E4D4^C2 | 
[V:2] E2C2D4E4 | 
[V:3] A,12 | 
[V:4] A,,4z4A,,4 | 
[V:1] D4z2E2D2B,2 | 
[V:2] D4A4B4 | 
[V:3] z2F,4E,2F,2G,2 | 
[V:4] _B,,4A,,2A,,4G,,2 | 
[V:1] C3DE2F4G2 | 
[V:2] A4z2A4G2 | 
[V:3] E,2F,2E,2D,2F,2E,2 | 
[V:4] A,,3B,,C,2D,4E,2 | 
[V:1] A3GF2E2D4 | 
[V:2] F2D4E2F4 | 
[V:3] D,4A,8 | 
[V:4] F,3E,D,2C,2D,4 | 
[V:1] C12 ||  
[V:2] E12 ||  
[V:3] A,12 ||  
[V:4] A,,12 ||  
[V:1]  [K:C] [K:clef=treble][M:3/1]C8D4 | 
[V:2]  [K:C] [K:clef=treble-8][M:3/1]A4A2A4F2 | 
[V:3]  [K:C] [K:clef=bass][M:3/1]E,8F,4 | 
[V:4]  [K:C] [K:clef=bass][M:3/1]A,,8D,4 | 
[V:1] E2C2DD2B,C3A, | 
[V:2] G2A2F2G2E4- | 
[V:3] E,4D,4A,4 | 
[V:4] C,2A,,2_B,,4A,,4 | 
[V:1] B,2A,2z2A,2CDEF | 
[V:2] E2F2G2C2E4 | 
[V:3] G,2A,2B,2C3B,A,2 | 
[V:4] z2A,,2G,,2A,,4C,2 | 
[V:1] G2F3EE4D2 | 
[V:2] z2c6A4 | 
[V:3] G,2A,2E,4F,4 | 
[V:4] _B,,2A,,2C,4D,4 | 
[V:1] E4z2E2DB,C2- | 
[V:2] B2c3B/A/GAB2EA- | 
[V:3] E,8z2C,2 | 
[V:4] z2A,,4C,2B,,2A,,2 | 
[V:1] C2A,2G,A,B,CD2E2- | 
[V:2] AGF2E2G2A2B2- | 
[V:3] E,2F,2G,4F,2E,2- | 
[V:4] C,2D,2E,4F,2G,2- | 
[V:1] E2G2F2E3DC2 | 
[V:2] B2c2A2G2c4 | 
[V:3] E,2C,2D,2E,2C,2G,2- | 
[V:4] G,2E,2F,2G,4C,2 | 
[V:1] B,2A,2z2C2D2F2 | 
[V:2] z2c2B2G4F2 | 
[V:3] G,2A,2G,2C4B,2 | 
[V:4] E,2F,2G,2F,E,D,4 | 
[V:1] E2A4G2F4 | 
[V:2] G2A2F2G2A4 | 
[V:3] C12 | 
[V:4] C,2F,4E,2F,4 | 
[V:1] E4z2D2E2F2 | 
[V:2] G4F2G2E2D2 | 
[V:3] z2C4B,2A,4 | 
[V:4] C,4z2G,,2C,2D,2 | 
[V:1] G3F/E/D2G2F2G2- | 
[V:2] z2D4E2D2C2 | 
[V:3] G,8z4 | 
[V:4] G,,3A,,B,,2C,2D,2E,2- | 
[V:1] GFE2D2G3FED | 
[V:2] E4z2E2D2E2 | 
[V:3] G,12- | 
[V:4] E,D,C,2B,,2C,2G,,2C,2- | 
[V:1] E2D4C4B,2 | 
[V:2] C2D2E2F2G4 | 
[V:3] G,4C,4D,4 | 
[V:4] C,2B,,2A,,4G,,4 | 
[V:1] C8z2C2 | 
[V:2] z2E2F2G2C4 | 
[V:3] C,4z2C,2E,3F, | 
[V:4] z2G,2A,2G,E,2F,G,2 | 
[V:1] E3FG2A2G2c2 | 
[V:2] c4B2A2z2A2 | 
[V:3] G,2A,2G,2C3B,A,2 | 
[V:4] C,3D,E,2F,2E,2F,2 | 
[V:1] B2A4G4^F2 | 
[V:2] BGd4c2d4 | 
[V:3] G,2F,2G,4A,4 | 
[V:4] G,2D,2E,4D,4 | 
[V:1] G4z2G2E2F2 | 
[V:2] z4d4c3c | 
[V:3] G,4z2G,2A,2C2 | 
[V:4] z2G,4B,2A,4 | 
[V:1] GE2CD2E4G2 | 
[V:2] dB2cA2B4c2 | 
[V:3] B,2G,2A,2G,4E,2 | 
[V:4] G,2E,2F,2E,4C,2 | 
[V:1] F2EG2FE2D4 | 
[V:2] A2G4c4B2 | 
[V:3] F,2G,2E,2C,2G,4 | 
[V:4] D,2E,2C,4G,,4 | 
[V:1] C4z4z2D2 | 
[V:2] c3B/A/G2Ac2B/A/B2 | 
[V:3] E,3C,D,2E,2F,2G,2 | 
[V:4] C,4B,,2A,,4G,,2 | 
[V:1] C3DEFE3DD2 | 
[V:2] A2c3de2A4 | 
[V:3] E,2A,4G,2F,4 | 
[V:4] A,,4C,4D,4 | 
[V:1] E12- | 
[V:2] z2A4B2c4 | 
[V:3] E,12- | 
[V:4] C,2A,,4G,,2A,,4 | 
[V:1] E12 ||  
[V:2] B12 ||  
[V:3] E,12 ||  
[V:4] E,,12 ||  
[V:1]  [K:C] [K:clef=treble][M:2/1]z8 | 
[V:2]  [K:C] [K:clef=treble-8][M:2/1]z8 | 
[V:3]  [K:C] [K:clef=bass][M:2/1]E,8 | 
[V:4]  [K:C] [K:clef=bass][M:2/1]z8 | 
[V:1] z8 | 
[V:2] z8 | 
[V:3] G,4G,4 | 
[V:4] z8 | 
[V:1] E8 | 
[V:2] z8 | 
[V:3] A,6G,F, | 
[V:4] z8 | 
[V:1] G4G4 | 
[V:2] z8 | 
[V:3] E,4z2E,2 | 
[V:4] z8 | 
[V:1] A6GF | 
[V:2] z8 | 
[V:3] D,2F,4E,D, | 
[V:4] z8 | 
[V:1] E4z2E2 | 
[V:2] z8 | 
[V:3] C,4C,D,E,F, | 
[V:4] z8 | 
[V:1] D2F4ED | 
[V:2] z8 | 
[V:3] G,2A,4G,F, | 
[V:4] z8 | 
[V:1] C4CDEF | 
[V:2] z8 | 
[V:3] E,4E,F,G,A, | 
[V:4] z8 | 
[V:1] G3AB2c2 | 
[V:2] z8 | 
[V:3] B,2C2B,2A,2 | 
[V:4] z8 | 
[V:1] B2A4^G2 | 
[V:2] z8 | 
[V:3] D2C2B,4 | 
[V:4] z8 | 
[V:1] A8 ||  
[V:2] z8 ||  
[V:3] A,8 ||  
[V:4] z8 ||  
[V:1]  [K:C] [K:clef=treble][M:2/1]z8 | 
[V:2]  [K:C] [K:clef=treble-8][M:2/1]A8 | 
[V:3]  [K:C] [K:clef=bass][M:2/1]z8 | 
[V:4]  [K:C] [K:clef=bass][M:2/1]F,8- | 
[V:1] z8 | 
[V:2] A6B2 | 
[V:3] z8 | 
[V:4] F,8- | 
[V:1] z8 | 
[V:2] c2d4cB | 
[V:3] z8 | 
[V:4] F,8- | 
[V:1] z8 | 
[V:2] A2c3BAG | 
[V:3] z8 | 
[V:4] F,8- | 
[V:1] z8 | 
[V:2] F4z2c2 | 
[V:3] z8 | 
[V:4] F,8- | 
[V:1] z8 | 
[V:2] d2f4ed | 
[V:3] z8 | 
[V:4] F,8 | 
[V:1] z8 | 
[V:2] c3de2f2 | 
[V:3] z8 | 
[V:4] E,8- | 
[V:1] z8 | 
[V:2] e2d4^c2 | 
[V:3] z8 | 
[V:4] E,8 | 
[V:1] z8 ||  
[V:2] d8 ||  
[V:3] z8 ||  
[V:4] D,8 ||  
[V:1]  [K:C] [K:clef=treble][M:3/1]z12 | 
[V:2]  [K:C] [K:clef=treble-8][M:3/1]z12 | 
[V:3]  [K:C] [K:clef=bass][M:3/1]E,4G,6G,2 | 
[V:4]  [K:C] [K:clef=bass][M:3/1]z12 | 
[V:1] E4G6G2 | 
[V:2] z12 | 
[V:3] G,8z2G,2- | 
[V:4] z12 | 
[V:1] G4z2A3GFE | 
[V:2] z12 | 
[V:3] G,F,E,D,C,2C3B,A,G, | 
[V:4] z12 | 
[V:1] F2E3DCB,C2B,2- | 
[V:2] z12 | 
[V:3] A,2G,3F,E,D,E,4 | 
[V:4] z12 | 
[V:1] B,2A,4^G,2A,4 | 
[V:2] z12 | 
[V:3] D,2C,2B,,4A,,3B,, | 
[V:4] z12 | 
[V:1] A,B,CDE2F2GFED | 
[V:2] z12 | 
[V:3] C,D,E,3F,G,A,B,A,G,F, | 
[V:4] z12 | 
[V:1] G2F2E2E4D2 | 
[V:2] z12 | 
[V:3] E,2D,2A,2G,2F,4 | 
[V:4] z12 | 
[V:1] E12 ||  
[V:2] z12 ||  
[V:3] E,12 ||  
[V:4] z12 ||  



